flaticon/essential/wireless-internet.svg

<svg xmlns="http://www.w3.org/2000/svg" width="32" height="32" viewBox="0 0 24 24">
    <path d="M 12 11.203125 C 11.117188 11.203125 10.398438 11.921875 10.398438 12.804688 C 10.398438 13.683594 11.117188 14.402344 12 14.402344 C 12.882812 14.402344 13.601562 13.683594 13.601562 12.804688 C 13.601562 11.921875 12.882812 11.203125 12 11.203125 Z M 12 13.601562 C 11.558594 13.601562 11.199219 13.242188 11.199219 12.804688 C 11.199219 12.363281 11.558594 12.003906 12 12.003906 C 12.441406 12.003906 12.800781 12.363281 12.800781 12.804688 C 12.800781 13.242188 12.441406 13.601562 12 13.601562 Z M 12 13.601562"/>
    <path d="M 12 9.203125 C 10.015625 9.203125 8.398438 10.816406 8.398438 12.804688 C 8.398438 14.066406 9.078125 15.253906 10.175781 15.902344 C 10.363281 16.011719 10.609375 15.949219 10.722656 15.761719 C 10.835938 15.570312 10.773438 15.324219 10.582031 15.210938 C 9.730469 14.707031 9.199219 13.785156 9.199219 12.804688 C 9.199219 11.257812 10.457031 10.003906 12 10.003906 C 13.542969 10.003906 14.800781 11.257812 14.800781 12.804688 C 14.800781 13.785156 14.269531 14.707031 13.417969 15.210938 C 13.226562 15.324219 13.164062 15.570312 13.277344 15.761719 C 13.351562 15.886719 13.484375 15.957031 13.621094 15.957031 C 13.691406 15.957031 13.761719 15.9375 13.824219 15.902344 C 14.921875 15.253906 15.601562 14.066406 15.601562 12.804688 C 15.601562 10.816406 13.984375 9.203125 12 9.203125 Z M 12 9.203125"/>
    <path d="M 12 0.804688 C 5.382812 0.804688 0 6.1875 0 12.804688 C 0 17.027344 2.265625 20.988281 5.910156 23.140625 C 5.972656 23.179688 6.042969 23.195312 6.113281 23.195312 C 6.25 23.195312 6.382812 23.125 6.457031 23 C 6.570312 22.808594 6.507812 22.566406 6.316406 22.453125 C 2.914062 20.445312 0.800781 16.746094 0.800781 12.804688 C 0.800781 6.628906 5.824219 1.601562 12 1.601562 C 18.175781 1.601562 23.199219 6.628906 23.199219 12.804688 C 23.199219 16.746094 21.085938 20.445312 17.683594 22.453125 C 17.492188 22.566406 17.429688 22.808594 17.542969 23 C 17.652344 23.191406 17.898438 23.253906 18.089844 23.140625 C 21.734375 20.988281 24 17.027344 24 12.804688 C 24 6.1875 18.617188 0.804688 12 0.804688 Z M 12 0.804688"/>
    <path d="M 21.199219 12.804688 C 21.199219 7.730469 17.074219 3.601562 12 3.601562 C 6.925781 3.601562 2.800781 7.730469 2.800781 12.804688 C 2.800781 16.039062 4.535156 19.074219 7.332031 20.726562 C 7.394531 20.765625 7.464844 20.78125 7.535156 20.78125 C 7.671875 20.78125 7.804688 20.710938 7.878906 20.585938 C 7.992188 20.394531 7.929688 20.152344 7.738281 20.039062 C 5.1875 18.527344 3.601562 15.757812 3.601562 12.804688 C 3.601562 8.171875 7.367188 4.402344 12 4.402344 C 16.632812 4.402344 20.398438 8.171875 20.398438 12.804688 C 20.398438 15.757812 18.8125 18.527344 16.261719 20.039062 C 16.070312 20.148438 16.007812 20.394531 16.121094 20.585938 C 16.230469 20.777344 16.476562 20.839844 16.667969 20.726562 C 19.464844 19.074219 21.199219 16.039062 21.199219 12.804688 Z M 21.199219 12.804688"/>
    <path d="M 18.398438 12.804688 C 18.398438 9.273438 15.527344 6.402344 12 6.402344 C 8.472656 6.402344 5.601562 9.273438 5.601562 12.804688 C 5.601562 15.046875 6.808594 17.160156 8.753906 18.308594 C 8.945312 18.421875 9.191406 18.359375 9.304688 18.167969 C 9.414062 17.980469 9.351562 17.734375 9.164062 17.621094 C 7.457031 16.613281 6.398438 14.769531 6.398438 12.804688 C 6.398438 9.714844 8.910156 7.203125 12 7.203125 C 15.089844 7.203125 17.601562 9.714844 17.601562 12.804688 C 17.601562 14.765625 16.542969 16.613281 14.835938 17.621094 C 14.648438 17.734375 14.585938 17.980469 14.695312 18.167969 C 14.769531 18.296875 14.90625 18.367188 15.042969 18.367188 C 15.109375 18.367188 15.179688 18.347656 15.246094 18.308594 C 17.191406 17.160156 18.398438 15.046875 18.398438 12.804688 Z M 18.398438 12.804688"/>
</svg>

<svg xmlns="http://www.w3.org/2000/svg" width="32" height="32" viewBox="0 0 24 24">
    <path d="M12 11.203c-.883 0-1.602.719-1.602 1.602a1.603 1.603 0 0 0 3.203 0c0-.883-.718-1.602-1.601-1.602zm0 2.399c-.441 0-.8-.36-.8-.797a.802.802 0 0 1 1.6 0c0 .437-.359.797-.8.797zm0 0"/>
    <path d="M12 9.203a3.605 3.605 0 0 0-3.602 3.602c0 1.261.68 2.449 1.778 3.097.187.11.433.047.547-.14a.401.401 0 0 0-.141-.551 2.814 2.814 0 0 1-1.383-2.406c0-1.547 1.258-2.801 2.801-2.801 1.543 0 2.8 1.254 2.8 2.8 0 .981-.53 1.903-1.382 2.407a.401.401 0 0 0 .406.691 3.617 3.617 0 0 0 1.778-3.097A3.605 3.605 0 0 0 12 9.203zm0 0"/>
    <path d="M12 .805c-6.617 0-12 5.383-12 12 0 4.222 2.266 8.183 5.91 10.336.063.039.133.054.203.054a.4.4 0 0 0 .203-.742 11.254 11.254 0 0 1-5.515-9.648C.8 6.629 5.824 1.602 12 1.602s11.2 5.027 11.2 11.203c0 3.941-2.114 7.64-5.516 9.648a.397.397 0 0 0-.141.547c.11.191.355.254.547.14C21.734 20.989 24 17.028 24 12.806c0-6.617-5.383-12-12-12zm0 0"/>
    <path d="M21.2 12.805c0-5.075-4.126-9.203-9.2-9.203-5.074 0-9.2 4.128-9.2 9.203a9.243 9.243 0 0 0 4.532 7.922c.063.039.133.054.203.054a.4.4 0 0 0 .203-.742 8.45 8.45 0 0 1-4.136-7.234c0-4.633 3.765-8.403 8.398-8.403 4.633 0 8.398 3.77 8.398 8.403a8.45 8.45 0 0 1-4.136 7.234.396.396 0 0 0-.14.547c.108.191.355.254.546.14a9.243 9.243 0 0 0 4.531-7.921zm0 0"/>
    <path d="M18.398 12.805c0-3.532-2.87-6.403-6.398-6.403-3.527 0-6.398 2.871-6.398 6.403a6.427 6.427 0 0 0 3.152 5.504c.191.113.437.05.55-.141a.405.405 0 0 0-.14-.547 5.621 5.621 0 0 1-2.766-4.816A5.606 5.606 0 0 1 12 7.203a5.606 5.606 0 0 1 5.602 5.602 5.626 5.626 0 0 1-2.766 4.816.401.401 0 1 0 .207.746c.066 0 .137-.02.203-.058a6.427 6.427 0 0 0 3.152-5.504zm0 0"/>
</svg>
